public/phinstagramlogofill.svg

<?xml version="1.0" encoding="UTF-8" standalone="no"?>
<svg
   width="62"
   height="62"
   viewBox="0 0 62 62"
   fill="none"
   version="1.1"
   id="svg428"
   sodipodi:docname="phinstagramlogofill.svg"
   inkscape:version="1.2 (dc2aeda, 2022-05-15)"
   xmlns:inkscape="http://www.inkscape.org/namespaces/inkscape"
   xmlns:sodipodi="http://sodipodi.sourceforge.net/DTD/sodipodi-0.dtd"
   xmlns="http://www.w3.org/2000/svg"
   xmlns:svg="http://www.w3.org/2000/svg">
  <sodipodi:namedview
     id="namedview430"
     pagecolor="#ffffff"
     bordercolor="#666666"
     borderopacity="1.0"
     inkscape:showpageshadow="2"
     inkscape:pageopacity="0.0"
     inkscape:pagecheckerboard="0"
     inkscape:deskcolor="#d1d1d1"
     showgrid="false"
     inkscape:zoom="3.3714286"
     inkscape:cx="35"
     inkscape:cy="35"
     inkscape:window-width="1309"
     inkscape:window-height="456"
     inkscape:window-x="0"
     inkscape:window-y="25"
     inkscape:window-maximized="0"
     inkscape:current-layer="svg428" />
  <g
     clip-path="url(#clip0_1_73)"
     id="g421"
     transform="translate(-7.65814,-7.65625)">
    <path
       d="m 48.9081,38.9062 c 0,1.9779 -0.5864,3.9113 -1.6853,5.5558 -1.0988,1.6444 -2.6606,2.9262 -4.4878,3.683 -1.8273,0.7569 -3.838,0.955 -5.7778,0.5691 -1.9398,-0.3858 -3.7216,-1.3383 -5.1201,-2.7368 -1.3986,-1.3985 -2.351,-3.1803 -2.7368,-5.1201 -0.3859,-1.9399 -0.1878,-3.9505 0.569,-5.7778 0.7569,-1.8272 2.0386,-3.389 3.6831,-4.4878 1.6445,-1.0989 3.5779,-1.6854 5.5557,-1.6854 2.6497,0.0083 5.1884,1.0645 7.062,2.9381 1.8736,1.8736 2.9298,4.4123 2.938,7.0619 z m 21.25,-13.75 v 27.5 c 0,4.6413 -1.8437,9.0925 -5.1256,12.3744 -3.2819,3.2819 -7.7331,5.1256 -12.3744,5.1256 h -27.5 c -4.6412,0 -9.0924,-1.8437 -12.3743,-5.1256 C 9.50189,61.7487 7.65814,57.2975 7.65814,52.6562 v -27.5 c 0,-4.6412 1.84375,-9.0924 5.12566,-12.3743 3.2819,-3.28191 7.7331,-5.12565 12.3743,-5.12565 h 27.5 c 4.6413,0 9.0925,1.84374 12.3744,5.12565 3.2819,3.2819 5.1256,7.7331 5.1256,12.3743 z m -16.25,13.75 c 0,-2.9667 -0.8797,-5.8668 -2.5279,-8.3335 -1.6482,-2.4667 -3.9909,-4.3893 -6.7318,-5.5246 -2.7409,-1.1354 -5.7569,-1.4324 -8.6666,-0.8536 -2.9097,0.5788 -5.5825,2.0074 -7.6803,4.1051 -2.0977,2.0978 -3.5264,4.7706 -4.1051,7.6803 -0.5788,2.9097 -0.2818,5.9257 0.8536,8.6666 1.1353,2.7409 3.0579,5.0836 5.5246,6.7318 2.4667,1.6482 5.3668,2.5279 8.3335,2.5279 3.9783,0 7.7936,-1.5803 10.6066,-4.3933 2.8131,-2.8131 4.3934,-6.6284 4.3934,-10.6067 z m 5,-16.25 c 0,-0.7416 -0.2199,-1.4667 -0.6319,-2.0833 -0.4121,-0.6167 -0.9978,-1.0974 -1.683,-1.3812 -0.6852,-0.2838 -1.4392,-0.3581 -2.1666,-0.2134 -0.7275,0.1447 -1.3957,0.5019 -1.9201,1.0263 -0.5245,0.5244 -0.8816,1.1926 -1.0263,1.9201 -0.1447,0.7274 -0.0704,1.4814 0.2134,2.1666 0.2838,0.6852 0.7645,1.2709 1.3812,1.683 0.6166,0.412 1.3417,0.6319 2.0833,0.6319 0.9946,0 1.9484,-0.395 2.6517,-1.0983 0.7033,-0.7033 1.0983,-1.6571 1.0983,-2.6517 z"
       fill="#733ca8"
       id="path419" />
  </g>
  <defs
     id="defs426">
    <clipPath
       id="clip0_1_73">
      <rect
         width="70"
         height="70"
         fill="#ffffff"
         transform="translate(0.00189209)"
         id="rect423"
         x="0"
         y="0" />
    </clipPath>
  </defs>
</svg>

<svg width="70" height="70" viewBox="0 0 70 70" fill="none" xmlns="http://www.w3.org/2000/svg">
<g clip-path="url(#clip0_1_73)">
<path d="M48.9081 38.9062C48.9081 40.8841 48.3217 42.8175 47.2228 44.462C46.124 46.1064 44.5622 47.3882 42.735 48.145C40.9077 48.9019 38.897 49.1 36.9572 48.7141C35.0174 48.3283 33.2356 47.3758 31.8371 45.9773C30.4385 44.5788 29.4861 42.797 29.1003 40.8572C28.7144 38.9173 28.9125 36.9067 29.6693 35.0794C30.4262 33.2522 31.7079 31.6904 33.3524 30.5916C34.9969 29.4927 36.9303 28.9062 38.9081 28.9062C41.5578 28.9145 44.0965 29.9707 45.9701 31.8443C47.8437 33.7179 48.8999 36.2566 48.9081 38.9062V38.9062ZM70.1581 25.1562V52.6562C70.1581 57.2975 68.3144 61.7487 65.0325 65.0306C61.7506 68.3125 57.2994 70.1562 52.6581 70.1562H25.1581C20.5169 70.1562 16.0657 68.3125 12.7838 65.0306C9.50189 61.7487 7.65814 57.2975 7.65814 52.6562V25.1562C7.65814 20.515 9.50189 16.0638 12.7838 12.7819C16.0657 9.49999 20.5169 7.65625 25.1581 7.65625H52.6581C57.2994 7.65625 61.7506 9.49999 65.0325 12.7819C68.3144 16.0638 70.1581 20.515 70.1581 25.1562V25.1562ZM53.9081 38.9062C53.9081 35.9395 53.0284 33.0394 51.3802 30.5727C49.732 28.106 47.3893 26.1834 44.6484 25.0481C41.9075 23.9127 38.8915 23.6157 35.9818 24.1945C33.0721 24.7733 30.3993 26.2019 28.3015 28.2996C26.2038 30.3974 24.7751 33.0702 24.1964 35.9799C23.6176 38.8896 23.9146 41.9056 25.05 44.6465C26.1853 47.3874 28.1079 49.7301 30.5746 51.3783C33.0413 53.0265 35.9414 53.9062 38.9081 53.9062C42.8864 53.9062 46.7017 52.3259 49.5147 49.5129C52.3278 46.6998 53.9081 42.8845 53.9081 38.9062ZM58.9081 22.6562C58.9081 21.9146 58.6882 21.1895 58.2762 20.5729C57.8641 19.9562 57.2784 19.4755 56.5932 19.1917C55.908 18.9079 55.154 18.8336 54.4266 18.9783C53.6991 19.123 53.0309 19.4802 52.5065 20.0046C51.982 20.529 51.6249 21.1972 51.4802 21.9247C51.3355 22.6521 51.4098 23.4061 51.6936 24.0913C51.9774 24.7765 52.4581 25.3622 53.0748 25.7743C53.6914 26.1863 54.4165 26.4062 55.1581 26.4062C56.1527 26.4062 57.1065 26.0112 57.8098 25.3079C58.5131 24.6046 58.9081 23.6508 58.9081 22.6562Z" fill="#733CA8"/>
</g>
<defs>
<clipPath id="clip0_1_73">
<rect width="70" height="70" fill="white" transform="translate(0.00189209)"/>
</clipPath>
</defs>
</svg>
